X: 7657
T: Coleford Jigge, The
R: hornpipe
M: 4/4
K: Dmajor
|:AG|F2 F2 DFAd|dAFD E4|DFAd dcdf|edcB AGFE|
F2 F2 DFAd|dAFD E2 E2|DFAd cdec|d2 d2 d2:|
|:z2|cdef gfge|defg a^gaf|g2 g2 f2 f2|edcB AGFE|
F2 F2 DFAd|dAFD E2 E2|DFAd cdec|d2 d2 d2:|

